svgs/solid/turkish-lira-sign.svg

<svg xmlns="http://www.w3.org/2000/svg" viewBox="0 0 384 512"><!--! Font Awesome Pro 6.0.0-alpha3 by @fontawesome - https://fontawesome.com License - https://fontawesome.com/license (Commercial License) --><path d="M384 288c0 105.9-86.13 192-192 192H96c-17.67 0-32-14.33-32-32V280.1L40.8 286.8C37.86 287.6 34.89 288 31.98 288c-13.92 0-26.73-9.172-30.75-23.22c-4.859-17 4.984-34.7 21.97-39.56L64 213.6V184.1L40.8 190.8C37.86 191.6 34.89 192 31.98 192c-13.92 0-26.73-9.172-30.75-23.22c-4.859-17 4.984-34.7 21.97-39.56L64 117.6V64c0-17.67 14.33-32 32-32s32 14.33 32 32v35.29l119.2-34.06c17.03-4.891 34.7 4.984 39.56 21.97c4.859 17-4.984 34.7-21.97 39.56L128 165.8v29.44l119.2-34.06c17.03-4.906 34.7 4.984 39.56 21.97c4.859 17-4.984 34.7-21.97 39.56L128 261.8V416h64c70.58 0 128-57.42 128-128c0-17.67 14.33-32 32-32S384 270.3 384 288z"/></svg>

<svg xmlns="http://www.w3.org/2000/svg" viewBox="0 0 384 512"><!--! Font Awesome Pro 6.1.1 by @fontawesome - https://fontawesome.com License - https://fontawesome.com/license (Commercial License) Copyright 2022 Fonticons, Inc. --><path d="M96 32C113.7 32 128 46.33 128 64V99.29L247.2 65.23C264.2 60.38 281.9 70.22 286.8 87.21C291.6 104.2 281.8 121.9 264.8 126.8L128 165.9V195.3L247.2 161.2C264.2 156.4 281.9 166.2 286.8 183.2C291.6 200.2 281.8 217.9 264.8 222.8L128 261.9V416H191.8C260 416 316.2 362.5 319.6 294.4L320 286.4C320.9 268.8 335.9 255.2 353.6 256C371.2 256.9 384.8 271.9 383.1 289.6L383.6 297.6C378.5 399.8 294.1 480 191.8 480H96C78.33 480 64 465.7 64 448V280.1L40.79 286.8C23.8 291.6 6.087 281.8 1.232 264.8C-3.623 247.8 6.217 230.1 23.21 225.2L64 213.6V184.1L40.79 190.8C23.8 195.6 6.087 185.8 1.232 168.8C-3.623 151.8 6.216 134.1 23.21 129.2L64 117.6V64C64 46.33 78.33 32 96 32L96 32z"/></svg>
